X: 15068
T: German, The
R: barndance
M: 4/4
K: Gmajor
|:G2 G>A B2 B2|c>Bc>d e2 e2|d>gg>e d>BG>B|A>BA>G (3EGE D>E|
G2 G>A B2 B2|c>Bc>d e2 e2|d>gg>e d>BG>B|1 (3ABA G2 G>DB,>D:|2 (3ABA G2 G>d (3fga||
b2 B2 b2 a>g|f>ef>g a2 a2|d'2 (3d'd'd' d'2 e>f|g>fg>a b>gd>g|
b2 (3bbb b2 a>g|f>ef>g a2 a2|d'2 (3d'd'd' d'2 e>f|1 g2 b2 g2 d>g:|2 g2 b2 g>ed>B||

